X:1
T:Title
%%score { ( 1 3 ) | 2 }
L:1/8
M:6/8
K:Ab
V:1 treble nm="Grand Piano"
V:3 treble 
V:2 bass 
V:1
 z3 z2[Q:1/4=100] [CE] | [Ec]2 [Ec] [Ec]>[DB][CA] | [DA]2 G G2 E | [Fd]>[Fd][Fd] c2 B | %4
[M:5/8] A-A- A3 |[M:1/8] [_GA] |[M:3/4] [FA]>[EG] [DF] [Fd]2 [DF] | [DF]2 [CE] [Ec]2 c | %8
 e2 e e2 c |[M:5/8] [GB]-[GB]- [GB]3 |[M:1/8] E |[M:3/4] [Fd]2 [Fd][Fd]- [Fd]/[Ec]/[EB] | %12
 [Ec]2 [Ec] [Ec]2 [Ec] | [CA]2 [CA] [FB]2 [F_c] |[M:5/8] [=Ec]-[Ec]- [Ec]3 |[M:1/8] [DE] | %16
[M:3/4] c2 z2 z2 | c2 c[Fd]- [Fd]/c/B | A>A A A2 G |[M:5/8] [CA]-[CA]- [CA]3 |[M:1/8] [CE]/[CE]/ | %21
[M:3/4] E>D E E2 F | [CE]4- [CE][Ec]/[Ec]/ | [Ee]>[EA] [=EA] [_Ec]2 [DB] | %24
[M:5/8] [CA]-[CA]- [CA]3 |] %25
V:2
 z3 z2 [A,,A,] | [A,,A,]2 [A,,A,] [A,,E,]2 [A,,E,] | [B,,E,]2 [E,B,D] [E,B,D]2 [E,G,D] | %3
 [E,G,]2 [E,G,] [E,A,E]2 [E,DE] |[M:5/8] [A,CE]-[A,CE]- [A,CE]3 |[M:1/8] [C,A,] | %6
[M:3/4] [D,A,]>[D,A,] [D,A,] [D,A,]2 [D,A,] | [A,,A,]2 [A,,A,] [A,,A,]2[K:treble] [A,E] | %8
 [A,CE]2 [A,CE] [CEA]2 [A,EA] |[M:5/8][K:bass] [E,E]-[E,E]- [E,E]3 |[M:1/8] [E,D] | %11
[M:3/4] [E,G,]2 [E,G,][E,G,]- [E,G,]/[E,A,]/[E,G,] | [A,,A,]2 [A,,A,] [A,,A,]2 [A,,A,] | %13
 [F,A,]2 [F,A,] [D,A,]2 [D,G,] |[M:5/8] [C,G,]-[C,G,]- [C,G,]3 |[M:1/8] [B,,G,] | %16
[M:3/4] [A,,A,]2[K:treble] [A,EA] [_G,CA]2[K:bass] [G,A,E] | %17
 [F,=A,E]2 [F,A,E][B,,B,]- [B,,B,]/[K:treble][A,F]/[DF] | %18
 [E,CE]>[E,CE] [E,_C=D] [E,B,_D]2 [E,B,D] |[M:5/8] [A,,A,]-[A,,A,]- [A,,A,]3 | %20
[M:1/8] [A,,A,]/[A,,A,]/ |[M:3/4] [E,G,B,]>[E,G,B,] [E,A,C] [E,B,D]2 [E,G,D] | %22
 [A,,A,]4- [A,,A,][A,,A,]/[A,,A,]/ | [C,A,]>[C,A,] [D,A,] [E,A,]2 [E,G,] | %24
[M:5/8] [A,,A,]-[A,,A,]- [A,,A,]3 |] %25
V:3
 x6 | x6 | x6 | x6 |[M:5/8] x5 |[M:1/8] x |[M:3/4] x6 | x6 | x6 |[M:5/8] x5 |[M:1/8] x | %11
[M:3/4] x6 | x6 | x6 |[M:5/8] x5 |[M:1/8] x |[M:3/4] CE c e2 e | x6 | x6 |[M:5/8] x5 |[M:1/8] x | %21
[M:3/4] x6 | x6 | x6 |[M:5/8] x5 |] %25

